X:12519
T:Over the Water to Charley
M:6/8
L:1/8
K:A
D2 A AFA|BdB AFD| D2 A AFA| B3 d3|D2 A AFA| BdB AFD|faf ecA|B3 d3:|!
faf ecA|BdB AFD|faf ecA|B3 d3|faf ecA|BdB AFD|D2 A AFA|B3 d3:|
